X:408
T:The Lasses of Portsmouth
C:Thompson, 1780
L:1/8
M:6/8
S:Colin Hume's website,  colinhume.com  - chords can also be printed below the stave.
Q:3/8=120
K:C
P:A
|: "C"g2e g2e | "Am"cdc e3 | "Dm"f2e f2e | "G"dec BAG |\
"C"g2e g2e | "Am"cdc e3 | "Dm"dfe "G7"dcB | "C"c3 c3 :|
P:B
|: "G"d2d "C"e2c | "D7"BcA "G"G3 | "C"cGc ece | "C"g2e c3 |\
"G"d2d "C"e2c | "D7"BcA "G"G3 | "Dm"ABc "G7"dcB | "C"c6 :|

